X: 2
T: Paddy Fahey's
R: jig
M: 6/8
L: 1/8
K: Gdor
|DGA BGG|cGG dGG|gdB Bcd||DGA BAG|cBA dfa|gfd Bcd|


Tune 532	Setting 13471

